X: 3407
Q: "Moderato."
M: C
L: 1/8
K: G
!p!uD |\
e2ed B2Bd | cBAG E2(DE) | G2Bd e2dB | A4 G3 |]
e |\
d2de g2Bd | cBAG E3e | d2(de) g2d2 | (B3c d3)d |\
gfed B2(Bd) | cBAG E2(DE) | G2Bd e2dB | A4 G3 |]
!f!D |\
gfed B2(Bd) | cBAG E2D>E | G<G B<d e2d>B | A4 G2 |]


